!! 00000] TT[WS
!!!OTL: Nian gaomian
!!!ARE: Asia, China, Shanxi Wutai
!! Ethnic Group: Han
!! WII, 99 (2)
!!!SCT: J0543
!!!YEM: Copyright 1995, estate of Helmut Schaffrath.
**kern
*ICvox
*Ivox
*M2/4
*k[f#c#g#]
*A:
{4ee
8cc#
8b
=1
4ee
8cc#
8b
=2
8ee
8cc#
8ee
8a
=3
8b
8b
8b
8b
=4
8b
8ee
8ee
8b
=5
8ee
4b
8a
=6
4b
4r}
=7
{8b
8cc#
4ee
=8
8ff#
8ee
8.cc#
16ee
=9
4f#
4b
=10
8b
8cc#
8g#
8f#
=11
4e
4r}
=12
{8b
8b
8b
8cc#
=13
16g#
16f#
16f#
16f#
4e
=14
4b
4ee
=15
4b
8.b
16cc#
=16
8g#
8b
8g#
8f#
=17
2e}
==
!!!AGN: Xiaodiao. Qingge, Sichun
!!!ONB: ESAC (Essen Associative Code) Database: CHINA
!!!AMT: simple duple
!!!AIN: vox
!!!EED: Helmut Schaffrath
!!!EEV: 1.0
*-
